X: 16204
T: Green Willis
R: reel
M: 4/4
K: Dmajor
|:A/B/c|d2dc d2fe|dAFA d2gf|edcB ABcd|edcB A2 A/B/c|
d2dc d2fe|dAFA d2gf|edcB ABcA|d6:|
|:fg|agfg agfe|d2dc d2ef|gfga bagf|edcB A2fg|
agfg agfe|d2 d2 g2 zf|edcB ABcA|d6:|

